X:297
T:Scotch Wallace B(….?) JaW.297
T:Scots Wae Hae,aka. JaW.297
M:C|
L:1/8
Q:1/2=60
S:James Winder Ms, Lancashire, 1835-41
R:.Air
O:England
A:Wyresdale,Lancashire
Z:vmp.Chris Partington, Aug 2004
K:C
(G>G)(G>E) G>A c2|(A>A)(A>G) (A>B)(c>d)|\
(e>f)(d>e) (c>d) (ed)|c>A A>G ” cr”G4||!
(e>e) (e>d) (e>f) g2|(d>d)(d>c) d>ef>a|\
(g>e) d>e (c>d) (e>d)|c<A A>G G4|]

